X:1
T:Sussex
T:Sussex
T:Courtesy of the Cyber Hymnal (http://www.cyberhymnal.org)
T:Courtesy of the Cyber Hymnal (http://www.cyberhymnal.org)
Z:Courtesy of the Cyber Hymnal (http://www.cyberhymnal.org)
%%score { ( 1 2 ) ( 3 4 ) }
L:1/8
Q:1/4=115
M:4/4
K:G
V:1 treble nm="P1"
V:2 treble 
V:3 bass nm="P2"
V:4 bass 
V:1
"^Editor: John Henry Fowler""^( Revision: 11-23-2007 )" [GB]2 [GB]2 [GB]3 [FA] | %1
 GA BA"^( 1906 )" G2 E2 | [Ec]2 [Gc]2 [GB]3"^Ralph Vaughan Williams" [FA] | %3
 G2"^( 1872 - 1958 )" [GB]2 [FA]4 | G2 G2 E2 D2 | G3 G AB c2 | [Gd]3 [Dd] [Fc]2 [GB]G | A2 A2 G4 |] %8
V:2
 x8 | E2 D2 E2 E2 | x8 | x8 | D2 D2 CB, A,2 | D3 E F2 G2 | x8 | G2 F2 G4 |] %8
V:3
 [G,D]2 [G,D]2 [G,D]3 [D,D] | [E,B,]2 [B,,B,]2 [E,B,]2 [E,G,]2 | [C,C]2 [E,C]2 [G,D]3 [D,D] | %3
 [E,B,]2 [B,,G,]2 [D,A,]4 | B,2 G,2 G,2 F,2 | G,3 B, D2 E2 | D3 G, C2 D2 | E2 DC B,4 |] %8
V:4
 x8 | x8 | x8 | x8 | G,,2 B,,2 C,2 D,2 | B,,3 E, D,2 C,2 | B,,3 B,, A,,2 B,,2 | C,2 D,2 G,,4 |] %8

